build/assets/images/Frame3.svg

<svg width="55" height="55" viewBox="0 0 55 55" fill="none" xmlns="http://www.w3.org/2000/svg">
<path d="M39.5312 0H15.4688C12.6221 0 10.3125 2.30957 10.3125 5.15625V49.8438C10.3125 52.6904 12.6221 55 15.4688 55H39.5312C42.3779 55 44.6875 52.6904 44.6875 49.8438V5.15625C44.6875 2.30957 42.3779 0 39.5312 0ZM27.5 51.5625C25.5986 51.5625 24.0625 50.0264 24.0625 48.125C24.0625 46.2236 25.5986 44.6875 27.5 44.6875C29.4014 44.6875 30.9375 46.2236 30.9375 48.125C30.9375 50.0264 29.4014 51.5625 27.5 51.5625ZM39.5312 39.9609C39.5312 40.6699 38.9512 41.25 38.2422 41.25H16.7578C16.0488 41.25 15.4688 40.6699 15.4688 39.9609V6.44531C15.4688 5.73633 16.0488 5.15625 16.7578 5.15625H38.2422C38.9512 5.15625 39.5312 5.73633 39.5312 6.44531V39.9609Z" fill="white"/>
</svg>

<svg width="55" height="55" fill="none" xmlns="http://www.w3.org/2000/svg"><path d="M39.531 0H15.47a5.158 5.158 0 00-5.156 5.156v44.688A5.158 5.158 0 0015.468 55H39.53a5.158 5.158 0 005.157-5.156V5.156A5.158 5.158 0 0039.53 0zM27.5 51.563a3.434 3.434 0 01-3.438-3.438 3.434 3.434 0 013.438-3.438 3.434 3.434 0 013.438 3.438 3.434 3.434 0 01-3.438 3.438zM39.531 39.96c0 .709-.58 1.289-1.289 1.289H16.758c-.71 0-1.29-.58-1.29-1.29V6.446c0-.709.58-1.289 1.29-1.289h21.484c.71 0 1.29.58 1.29 1.29V39.96z" fill="#fff"/></svg>
